icons/svg/read.svg

﻿<?xml version="1.0" encoding="utf-8"?>
<!DOCTYPE svg PUBLIC "-//W3C//DTD SVG 1.1//EN" "http://www.w3.org/Graphics/SVG/1.1/DTD/svg11.dtd">
<svg xmlns="http://www.w3.org/2000/svg" xmlns:xlink="http://www.w3.org/1999/xlink" version="1.1" baseProfile="full" width="24" height="24" viewBox="0 0 24.00 24.00" enable-background="new 0 0 24.00 24.00" xml:space="preserve">
	<path fill="#000000" fill-opacity="1" stroke-linejoin="round" d="M 21.5898,11.59L 23,13L 13.51,22.5L 8.42,17.41L 9.83,16L 13.5,19.68L 21.5898,11.59 Z M 4,16L 4,3L 6,3L 8.99999,3.00001C 11.2091,3.00001 13,4.79087 13,7.00001C 13,8.54108 12.1285,9.8786 10.8515,10.5466L 14,16L 12,16L 9.11325,11L 6,11L 6,16L 4,16 Z M 6,9.00001L 9,9.00001C 10.1046,9.00001 11,8.10458 11,7.00001C 11,5.89544 10.1046,5.00001 9,5.00001L 6,5.00001L 6,9.00001 Z "/>
</svg>

<svg xmlns="http://www.w3.org/2000/svg" version="1.1" baseProfile="full" width="24" height="24" viewBox="0 0 24.00 24.00" xml:space="preserve"><path fill="#000" fill-opacity="1" stroke-linejoin="round" d="M21.59 11.59L23 13l-9.49 9.5-5.09-5.09L9.83 16l3.67 3.68 8.09-8.09zM4 16V3h5c2.21 0 4 1.79 4 4 0 1.54-.87 2.88-2.15 3.547L14.002 16h-2l-2.887-5H6v5H4zm2-7h3c1.105 0 2-.895 2-2s-.895-2-2-2H6v4z"/></svg>
